X: 24679
T: MacLaine Of Loch Buie
R: reel
M: 4/4
K: Amixolydian
e2 de AAAB|g2 fg BGBd|1 e2 de edea|gedB BAAA:|2 e2 ce ecea|gedB A3 e||
|:a2 ag aeef|gage fdcd|eaae aeea|gedB BAAA|
a2 ag aeef|gage fdcd|eage edea|gedB BAAA:|

